ui/StatusQ/src/assets/img/icons/mobile-sync.svg

<svg fill="none" height="24" viewBox="0 0 24 24" width="24" xmlns="http://www.w3.org/2000/svg"><g fill="#000"><path d="m20 8.99988c-.4142 0-.7444-.33771-.8028-.74777-.3282-2.30106-2.1484-4.12124-4.4494-4.44938-.4101-.05847-.7478-.38863-.7478-.80285 0-.41421.3371-.75437.7488-.70893 3.1297.3454 5.6147 2.83046 5.9601 5.96013.0455.41172-.2947.7488-.7089.7488z"/><path clip-rule="evenodd" d="m11 5.25h-.7136c-.58816-.00001-1.07905-.00002-1.47873.03585-.41741.03745-.80762.11861-1.17018.32541-.4278.24402-.78221.59843-1.02622 1.02623-.2068.36256-.28796.75277-.32542 1.17018-.03587.39967-.03586.89055-.03585 1.47872v8.42721c-.00001.5881-.00002 1.0791.03585 1.4787.03746.4174.11862.8077.32542 1.1702.24401.4278.59842.7822 1.02622 1.0262.36256.2068.75277.288 1.17018.3255.39967.0358.89056.0358 1.47873.0358h3.4272c.5882 0 1.0791 0 1.4787-.0358.4174-.0375.8077-.1187 1.1702-.3255.4278-.244.7822-.5984 1.0262-1.0262.2068-.3625.288-.7528.3255-1.1702.0358-.3996.0358-.8905.0358-1.4787v-5.7136c0-.4142-.3358-.75-.75-.75s-.75.3358-.75.75v3.75c0 .2761-.2239.5-.5.5h-7.5c-.27614 0-.5-.2239-.5-.5v-6.43c0-.63042.00071-1.0536.02984-1.37826.02823-.31451.07843-.46299.13437-.56106.11092-.19446.27202-.35555.46647-.46647.09807-.05594.24655-.10614.56106-.13437.32466-.02913.74784-.02984 1.37826-.02984h.68c.4142 0 .75-.33579.75-.75s-.3358-.75-.75-.75zm-2.74992 12.5c-.27617 0-.50077.2239-.49878.5001.00239.3339.00921.5927.02854.8082.02823.3145.07843.463.13437.561.11092.1945.27202.3556.46647.4665.09807.0559.24655.1061.56106.1344.32466.0291.74784.0298 1.37826.0298h3.36c.6304 0 1.0536-.0007 1.3783-.0298.3145-.0283.463-.0785.561-.1344.1945-.1109.3556-.272.4665-.4665.0559-.098.1061-.2465.1344-.561.0193-.2155.0261-.4743.0285-.8082.002-.2762-.2226-.5001-.4988-.5001z" fill-rule="evenodd"/><path d="m16.1267 8.2637c.1355.39142.4591.73642.8733.73642s.7578-.33917.676-.74521c-.2971-1.47322-1.4576-2.63371-2.9308-2.93075-.406-.08187-.7452.26174-.7452.67596 0 .41421.345.73776.7364.87328.6503.22512 1.1652.74005 1.3903 1.3903z"/></g></svg>

<svg width="24" height="24" viewBox="0 0 24 24" fill="none" xmlns="http://www.w3.org/2000/svg">
<path d="M20 8.99988C19.5858 8.99988 19.2556 8.66217 19.1972 8.25211C18.869 5.95105 17.0488 4.13087 14.7478 3.80273C14.3377 3.74426 14 3.4141 14 2.99988C14 2.58567 14.3371 2.24551 14.7488 2.29095C17.8785 2.63635 20.3635 5.12141 20.7089 8.25108C20.7544 8.6628 20.4142 8.99988 20 8.99988Z" fill="black"/>
<path fill-rule="evenodd" clip-rule="evenodd" d="M11 5.25L10.2864 5.25C9.69824 5.24999 9.20735 5.24998 8.80767 5.28585C8.39026 5.3233 8.00005 5.40446 7.63749 5.61126C7.20969 5.85528 6.85528 6.20969 6.61127 6.63749C6.40447 7.00005 6.32331 7.39026 6.28585 7.80767C6.24998 8.20734 6.24999 8.69822 6.25 9.28639V17.7136C6.24999 18.3017 6.24998 18.7927 6.28585 19.1923C6.32331 19.6097 6.40447 20 6.61127 20.3625C6.85528 20.7903 7.20969 21.1447 7.63749 21.3887C8.00005 21.5955 8.39026 21.6767 8.80767 21.7142C9.20734 21.75 9.69823 21.75 10.2864 21.75H13.7136C14.3018 21.75 14.7927 21.75 15.1923 21.7142C15.6097 21.6767 16 21.5955 16.3625 21.3887C16.7903 21.1447 17.1447 20.7903 17.3887 20.3625C17.5955 20 17.6767 19.6097 17.7142 19.1923C17.75 18.7927 17.75 18.3018 17.75 17.7136V12C17.75 11.5858 17.4142 11.25 17 11.25C16.5858 11.25 16.25 11.5858 16.25 12V15.75C16.25 16.0261 16.0261 16.25 15.75 16.25H8.25C7.97386 16.25 7.75 16.0261 7.75 15.75V9.32C7.75 8.68958 7.75071 8.2664 7.77984 7.94174C7.80807 7.62723 7.85827 7.47875 7.91421 7.38068C8.02513 7.18622 8.18623 7.02513 8.38068 6.91421C8.47875 6.85827 8.62723 6.80807 8.94174 6.77984C9.2664 6.75071 9.68958 6.75 10.32 6.75H11C11.4142 6.75 11.75 6.41421 11.75 6C11.75 5.58579 11.4142 5.25 11 5.25ZM8.25008 17.75C7.97391 17.75 7.74931 17.9739 7.7513 18.2501C7.75369 18.584 7.76051 18.8428 7.77984 19.0583C7.80807 19.3728 7.85827 19.5213 7.91421 19.6193C8.02513 19.8138 8.18623 19.9749 8.38068 20.0858C8.47875 20.1417 8.62723 20.1919 8.94174 20.2202C9.2664 20.2493 9.68958 20.25 10.32 20.25H13.68C14.3104 20.25 14.7336 20.2493 15.0583 20.2202C15.3728 20.1919 15.5213 20.1417 15.6193 20.0858C15.8138 19.9749 15.9749 19.8138 16.0858 19.6193C16.1417 19.5213 16.1919 19.3728 16.2202 19.0583C16.2395 18.8428 16.2463 18.584 16.2487 18.2501C16.2507 17.9739 16.0261 17.75 15.7499 17.75H8.25008Z" fill="black"/>
<path d="M16.1267 8.2637C16.2622 8.65512 16.5858 9.00012 17 9.00012C17.4142 9.00012 17.7578 8.66095 17.676 8.25491C17.3789 6.78169 16.2184 5.6212 14.7452 5.32416C14.3392 5.24229 14 5.5859 14 6.00012C14 6.41433 14.345 6.73788 14.7364 6.8734C15.3867 7.09852 15.9016 7.61345 16.1267 8.2637Z" fill="black"/>
</svg>
